Assets/ico-shuffle.svg

<svg viewBox="0 0 24 24" fill="none" xmlns="http://www.w3.org/2000/svg">
<path d="M18 4L21 7M21 7L18 10M21 7H17C16.0707 7 15.606 7 15.2196 7.07686C13.6329 7.39249 12.3925 8.63288 12.0769 10.2196C12 10.606 12 11.0707 12 12C12 12.9293 12 13.394 11.9231 13.7804C11.6075 15.3671 10.3671 16.6075 8.78036 16.9231C8.39397 17 7.92931 17 7 17H3M18 20L21 17M21 17L18 14M21 17H17C16.0707 17 15.606 17 15.2196 16.9231C15.1457 16.9084 15.0724 16.8917 15 16.873M3 7H7C7.92931 7 8.39397 7 8.78036 7.07686C8.85435 7.09158 8.92758 7.1083 9 7.12698" stroke="white" stroke-width="2" stroke-linecap="round" stroke-linejoin="round"/>
</svg>

<svg xmlns="http://www.w3.org/2000/svg" fill="none" viewBox="0 0 24 24"><path stroke="#fff" stroke-linecap="round" stroke-linejoin="round" stroke-width="2" d="m18 4 3 3m0 0-3 3m3-3h-4c-.93 0-1.394 0-1.78.077a4 4 0 0 0-3.143 3.143C12 10.606 12 11.07 12 12s0 1.394-.077 1.78a4 4 0 0 1-3.143 3.143C8.394 17 7.93 17 7 17H3m15 3 3-3m0 0-3-3m3 3h-4c-.93 0-1.394 0-1.78-.077a4 4 0 0 1-.22-.05M3 7h4c.93 0 1.394 0 1.78.077q.111.022.22.05"/></svg>
